web/src/images/instagram.svg

<svg width="16" height="15" viewBox="0 0 16 15" fill="none" xmlns="http://www.w3.org/2000/svg">
<path d="M5.02417 0C2.61229 0 0.650391 1.96372 0.650391 4.37622V10.6262C0.650391 13.0381 2.61411 15 5.02661 15H11.2766C13.6885 15 15.6504 13.0363 15.6504 10.6238V4.37378C15.6504 1.9619 13.6867 0 11.2742 0H5.02417ZM12.5254 2.5C12.8704 2.5 13.1504 2.78 13.1504 3.125C13.1504 3.47 12.8704 3.75 12.5254 3.75C12.1804 3.75 11.9004 3.47 11.9004 3.125C11.9004 2.78 12.1804 2.5 12.5254 2.5ZM8.15039 3.75C10.2185 3.75 11.9004 5.43187 11.9004 7.5C11.9004 9.56813 10.2185 11.25 8.15039 11.25C6.08227 11.25 4.40039 9.56813 4.40039 7.5C4.40039 5.43187 6.08227 3.75 8.15039 3.75ZM8.15039 5C7.48735 5 6.85146 5.26339 6.38262 5.73223C5.91378 6.20107 5.65039 6.83696 5.65039 7.5C5.65039 8.16304 5.91378 8.79893 6.38262 9.26777C6.85146 9.73661 7.48735 10 8.15039 10C8.81343 10 9.44932 9.73661 9.91816 9.26777C10.387 8.79893 10.6504 8.16304 10.6504 7.5C10.6504 6.83696 10.387 6.20107 9.91816 5.73223C9.44932 5.26339 8.81343 5 8.15039 5V5Z" fill="black"/>
</svg>

<svg width="16" height="15" fill="none" xmlns="http://www.w3.org/2000/svg"><path d="M5.024 0A4.38 4.38 0 00.65 4.376v6.25A4.38 4.38 0 005.027 15h6.25a4.38 4.38 0 004.373-4.376v-6.25A4.38 4.38 0 0011.274 0h-6.25zm7.501 2.5a.625.625 0 110 1.25.625.625 0 010-1.25zM8.15 3.75A3.754 3.754 0 0111.9 7.5a3.754 3.754 0 01-3.75 3.75A3.754 3.754 0 014.4 7.5a3.754 3.754 0 013.75-3.75zm0 1.25a2.5 2.5 0 100 5 2.5 2.5 0 000-5z" fill="#000"/></svg>
